X: 31472
T: Paddy Taylor's
R: jig
M: 6/8
K: Dmixolydian
|:A3g3|a3 efg|f3 ged|cAG EFG|
A3g3|a3 efg|fed cAG|Ad^c d3:|
|:f3 edc|d3 cAG|A3 DFA|fed ecA|
fed edc|ded cde|fed cAG|Ad^c d3:|

